images_elementary_svg/cmd/sc_insertrows.svg

<svg viewBox="0 0 16 16" xmlns="http://www.w3.org/2000/svg" xmlns:xlink="http://www.w3.org/1999/xlink"><linearGradient id="a" gradientTransform="matrix(.59436 0 0 .5999 -19.265 -.033)" gradientUnits="userSpaceOnUse" x1="25.132" x2="25.132" y1="15.5" y2="48.396"><stop offset="0" stop-color="#fafafa"/><stop offset="1" stop-color="#e2e1de"/></linearGradient><linearGradient id="b" gradientTransform="matrix(.4922 0 0 .4584 4.51 -4.794)" gradientUnits="userSpaceOnUse" x1="39.242" x2="10.382" y1="15.935" y2="17.179"><stop offset="0" stop-color="#90dbec"/><stop offset=".262" stop-color="#55c1ec"/><stop offset=".705" stop-color="#3689e6"/><stop offset="1" stop-color="#2b63a0"/></linearGradient><linearGradient id="c" gradientTransform="matrix(0 -.5372 .57682 0 -15.997 19.866)" gradientUnits="userSpaceOnUse" x1="30.655" x2="30.828" y1="65.687" y2="48.688"><stop offset="0" stop-color="#fff"/><stop offset=".21" stop-color="#fff" stop-opacity=".235"/><stop offset=".859" stop-color="#fff" stop-opacity=".157"/><stop offset="1" stop-color="#fff" stop-opacity=".392"/></linearGradient><g transform="translate(0 2)"><rect fill="url(#a)" height="14" rx=".424" ry=".491" width="14" x="1" y="-1"/><path d="m.498-1.998c-.276 0-.5.224-.5.5l.002 14.998c0 .276.224.5.5.5h15c.276 0 .5-.224.5-.5l-.002-10.5h.002v-1h-.002v-3.498c0-.276-.224-.5-.5-.5h-15zm.498.998h14.004v3h-4.002v-2.998h-1v2.998h-4v-2.998h-1v2.998h-4.002zm0 4h4.004v2h-4v1h4v3h-4v1h4v3h1v-3h4v3h1v-3h4v-1h-4v-3h4v3l.002 4.002h-14.004zm5.004 0h4v2h-4zm5 0h4v2h-4zm-5 3h4v3h-4z" fill="#030303" opacity=".32"/></g><path d="m1 0h14v5h-14z" fill="#9cde4a"/><path d="m1 0c-.554 0-1 .446-1 1v3c0 .554.446 1 1 1h14c.554 0 1-.446 1-1v-3c0-.554-.446-1-1-1zm0 1h14v3h-14z" fill="#5ca12a"/><path d="m5 1h1v3h-1zm5 0h1v3h-1z" fill="#5ca12a"/><path d="m16.685 9.236 7.01-6.12-7.034-5.9v3.644l-6.184-.012.023 4.652 6.185.014z" display="block" fill="url(#b)" transform="matrix(0 -.64678 .64678 0 8.94 22.29)"/><g stroke-miterlimit="7"><path d="m14.914 11.5-3.974-4.99-3.802 5.002h2.36l-.01 4 3.01-.015.01-4z" style="display:block;fill:#46a9eb;fill-opacity:.984;stroke:#2f78c8;stroke-width:.999922;stroke-linejoin:round"/><path d="m17.685 7.126 5.145-4.036-5.17-3.8v2.574l-6.184-.014.024 2.65 6.185.014z" display="block" fill="none" stroke="url(#c)" stroke-width=".964" transform="matrix(0 -.64678 .64678 0 8.94 22.29)"/></g></svg>

<svg xmlns="http://www.w3.org/2000/svg" viewBox="0 0 16 16"><defs><linearGradient id="b" gradientTransform="matrix(.59436 0 0 .5999 -19.265 -.033)" gradientUnits="userSpaceOnUse" x1="25.132" x2="25.132" y1="15.5" y2="48.396"><stop offset="0" stop-color="#fafafa"/><stop offset="1" stop-color="#e2e1de"/></linearGradient><linearGradient id="a"><stop offset="0" stop-color="#fff"/><stop offset=".5" stop-color="#fff" stop-opacity=".235"/><stop offset=".951" stop-color="#fff" stop-opacity=".157"/><stop offset="1" stop-color="#fff" stop-opacity=".392"/></linearGradient><linearGradient id="c" gradientTransform="matrix(.4922 0 0 .4584 4.51 -4.794)" gradientUnits="userSpaceOnUse" x1="39.242" x2="10.382" y1="15.935" y2="17.179"><stop offset="0" stop-color="#90dbec"/><stop offset=".262" stop-color="#55c1ec"/><stop offset=".705" stop-color="#3689e6"/><stop offset="1" stop-color="#2b63a0"/></linearGradient><linearGradient id="d" gradientTransform="matrix(0 -.5372 .57682 0 -15.997 19.866)" gradientUnits="userSpaceOnUse" x1="30.655" x2="30.828" y1="65.687" y2="48.688"><stop offset="0" stop-color="#fff"/><stop offset=".21" stop-color="#fff" stop-opacity=".235"/><stop offset=".859" stop-color="#fff" stop-opacity=".157"/><stop offset="1" stop-color="#fff" stop-opacity=".392"/></linearGradient></defs><g transform="translate(0 2)"><rect height="14" rx=".424" ry=".491" width="14" x="1" y="-1" fill="url(#b)"/><path d="M.498-1.998c-.276 0-.5.224-.5.5L0 13.5c0 .276.224.5.5.5h15c.276 0 .5-.224.5-.5L15.998 3H16V2h-.002v-3.498c0-.276-.224-.5-.5-.5h-15zM.996-1H15v3h-4.002V-.998h-1V2h-4V-.998h-1V2H.996v-3zm0 4H5v2H1v1h4v3H1v1h4v3h1v-3h4v3h1v-3h4V9h-4V6h4v3l.002 4.002H.998L.996 3zM6 3h4v2H6V3zm5 0h4v2h-4V3zM6 6h4v3H6V6z" opacity=".32" fill="#030303"/></g><path d="M1 0h14v5H1z" fill="#9cde4a"/><path d="M1 0C.446 0 0 .446 0 1v3c0 .554.446 1 1 1h14c.554 0 1-.446 1-1V1c0-.554-.446-1-1-1zm0 1h14v3H1z" fill="#5ca12a"/><path fill="#5ca12a" d="M5 1h1v3H5zM10 1h1v3h-1z"/><path d="M16.685 9.236l7.01-6.12-7.034-5.9V.86L10.477.848 10.5 5.5l6.185.014z" display="block" fill="url(#c)" transform="matrix(0 -.64678 .64678 0 8.94 22.29)"/><path d="M14.914 11.5L10.94 6.51l-3.802 5.002h2.36l-.01 4 3.01-.015.01-4z" display="block" fill="#46a9eb" fill-opacity=".984" stroke="#2f78c8" stroke-width=".99992188" stroke-linejoin="round" stroke-miterlimit="7"/><path d="M17.685 7.126L22.83 3.09 17.66-.71v2.574l-6.184-.014L11.5 4.5l6.185.014z" display="block" stroke-miterlimit="7" fill="none" stroke="url(#d)" stroke-width=".964" transform="matrix(0 -.64678 .64678 0 8.94 22.29)"/></svg>
